X:1
T:Adadeny 2016 "Drum Corpse Bride" Marimba
T:Academy 2016 "Drum Corpse Bride" Marimba
%%score { 1 | 2 }
L:1/8
Q:1/4=78
M:4/4
K:Db
V:1 treble nm="Marimba" snm="Mrm."
V:2 bass 
V:1
 (3DFA (3dAF (3D/F/A/(3F/A/d/ f/d/A/F/ | (3B,DF (3BFD (5:4:5A,/D/F/A/d/ f/d/A/F/ | %2
 (3G,/B,/D/(3B,/D/G/ (3D/G/B/(3G/B/d/ D/G/B/d/ G/B/d/g/ |[M:2/4] (3Ace (3ac'e | %4
[M:4/4][Q:1/4=104] a2 c'2 e'4 | d'bd'b d'bd'b | d'bd'b d'bd'b | d'bd'b d'bd'b | d'bd'b d'bd'b | %9
 fdfd fdfd | ecec dBdB | ecec ecec | d'fad fAdF | bgbg bgbg | afaf bgdg | dgbg e'bgb | %16
 =afcf af c2 |[K:Ab] z4 c/f/a/c'/ f'2 | z4 F/A/c/f/ a/c'/f' | z4 z2 E/G/B/e/ | %20
 g2 [Aa][Bb] [Aa][Ee][Dd][Cc] | B/B,/C/D/ E/F/_G/A/ B/c/d/e/ f/_g/a/b/ | %22
 a/e/c/e/ ad/4c/4d/4c/4 d/c/A/F/ A/F/D/A,/ | [Aa]2 [Bb]2 [Gg]2 [Ff]2 | [cc']8 | z8 | z8 || %27
[Q:1/4=116] z8 | z8 | z8 | CEGc egc'e' | G=B=dg CEGc | G,=B,=DG C2 [CE]2 | z8 | %34
 (3[Be][^FB][e^f] (3[Be][fb][ef] [Ee][B,B][_G,_G][B,B] | z4 F/_G/A/B/ (5:4:5d/e/f/_g/a/ | %36
 B>[_C_c] [B,B]>[_G,_G] [F,F]>[G,G] [F,F]>[=D,=D] | [Ee][Ee]/[=D=d]/ [Ee][_G_g] [Ff][Ee][Ee][Dd] | %38
 z8 | z8 | z8 ||[Q:1/4=174] z8 | z8 | [Ee]2 [Ee]2 [Ee]2 [Ee][Ff] | %44
 [_G_g][Aa][Bb][_c_c'] [Bb]2 [Bb][cc'] | [dd'][ee'][ff'][_g_g'] [ff'][ee'][dd'][ee'] | %46
 [dd'][_c_c'][Bb][Aa] [_G_g][Ff] [Ee]2 | z8 | z8 | z4 (5:4:5A,B,CDE | (3F2 D2 A2 B2 B2 | %51
 [F=A]>_G F=E F2 z2 | [F=A]_G/F/ G/F/E/=E/ F2 [Bb]2 | [=A=a]2 [_A_a]2 [Gg]2 [Ff]2 | [=E=e]2 z2 z4 | %55
 z4 [CG_fc']4 | z [Gc][Gc] z z [=EG][EG] z | z [C=E][CE] z z [G,C][G,C] z || z8 | z8 | z8 | z8 | %62
 z8 | z8 | z8 | z8 | z [=EA] [EA]2 [_E_G]2 [EG]2 | z [=EA] [EA]2 [EA_ce]2 AB | %68
 _c2 [dd']2 [ee']2 [_f_f']2 | [_g_g']2 [aa']2 [=a=a']2 [=b=b']2 |"^4.5" z2 z2 (3cAF (3CFA | %71
 (3c z G (3FGc (3f z c f2 | z8 | z8 |[M:3/4] z6 | z6 |[M:4/4] z8 | z8 | %78
 (3G z F (3FEF (3G z ^F (3=F z =E | (3=E_E=D (3_DC=B, (3_B,=A,_A, (3G,_G,F, || %80
[K:Eb][M:9/8][Q:3/8=174] z9 | z9 | z9 | z9 | z9 | z9 | [=E_d]3 [_G=d]3 [A=e]3 | %87
 [_DFAf]2 [DFAf]2 [DFAf]2 [DFAf]3 | ABc BAG FED | C z8 | [Cc]3 [Cc]3 [Cc]3 | %91
 [=EG]3 [FA]2 [c=e] [FB]2 [fb] | c_d=e fga gfe | f z8 | z9 | %95
"^R   L  R L" =A2 _A/=A/ F2 F/=E/ _D2 C/D/ | =A,2 z z2 z4 | z9 | z9 | (3EFG(3ABc z z4 | %100
 (3EFG(3ABc z z4 | z9 | =A2 _A/=A/ F2 F/=E/ _D2 C/D/ | =A,2 z z2 z4 | %104
 (3EFG(3ABc z z (3efg(3a/ z/ b/ | (3z/ c'/ z/ z z g^fg gfg | _fed _dc=B _B=A_A | %107
 G^F=F =E_E=E F^FG | A z8 | z9 | z9 | z9 | z9 | z9 | z9 | EGF E z =B E z e | z9 | %117
 EGF E z =B E z e | z2 z _GGG z2 z | C3 _GGG =GGF | EF_G =G_dc B=ee | f2 z z2 z4 | %122
[K:F]"^Headbang Profoundly" z _A_D z AD z GC | z _A_D z AD z GC | z _A_D z AD z GC | %125
 z _A_D z AD z z2 | z9 |[M:4/4][Q:1/4=174] z8 | z8 | z8 | z8 | z8 | z8 |[M:9/8][Q:3/8=174] z9 | %134
 z9 | z9 | z9 | z9 | z9 | z9 | z9 | [^cd_ef]2 [cdef]2 [cdef]2 [cdef]2 [cdef] | %142
 z [^cd_ef]2 [cdef]2 [cdef]2 [cdef]2 |[M:4/4][Q:1/4=174] [cf] [cf]2 [cf] [cf]2 [cf][cf] | %144
 z [cf] [cf]2 [cf] [cf]2 [cf] | [cf]2 [cf] [cf]2 [cf] [cf]2 | [cf] [cf]2 [cf] [cf]2 [cf][cf] | %147
 z [cf] [cf]2 [cf] [cf]2 [cf] | [cf]2 [cf] [cf]2 [cf] [cf]2 | z8 | z8 |[M:3/4] z6 | z6 | z6 | z6 | %155
[M:4/4] C2 ^D^F F=FED | D2 z2 z4 |[M:3/4] z6 | z6 | z6 | z6 |[M:4/4] F2 _A_c cB=A_A | G z z2 z4 | %163
 z8 | z8 ||[Q:1/4=192] z2 D^F F=FE_E | D3 F C3 _G | _D2 ^FA A_AG_G | F3 G D3 _A | z2 _EG G_GG=E | %170
 _E z z2 z4 | z8 | z8 | z2 _DF FE_E=D | _D z z2 z4 | z8 | z8 | z2 _E_G GF=E_E | D z z2 _E2 z2 | %179
 D z z2 z4 | z8 |[M:3/4] z6 | z6 | z6 | z6 |[M:4/4] z8 | z8 | z8 | z8 | z8 | z8 | z8 | z8 | z8 | %194
 z8 | z8 | z8 | z8 | z8 | z8 |] %200
V:2
 z8 | z8 | z8 |[M:2/4] z4 |[M:4/4] z8 | z8 | z8 | z8 | z8 | [F,F]2 [B,B]2 [Dd]2 [B,B]2 | %10
 [F,F]2 [=A,=A]2 [B,B]2 [F,F]2 | [E,E]2 [A,A]2 [Cc]2 [A,A]2 | [F,F]2 [A,A]2 [Dd]2 [F,F]2 | %13
 [E,E]2 [B,B]2 [Ee]2 [B,B]2 | [F,F]2 [A,A]2 [Dd]2 [B,B]2 | [E,E]2 [B,B]2 [Ee]2 [B,B]2 | %16
 [F,F]2 [=A,=A]2 [Cc]4 |[K:Ab] F,,/A,,/C,/F,/ A,/C/F/A/ z4 | C,/F,/A,/C/ =E/G/c z4 | %19
 E,/B,,/E,/B,,/ E,/B,,/E, (3G,/B,/E/(3G,/B,/E/ z2 | z8 | z8 | z8 | z8 | z8 | z8 | z8 || %27
 F,,A,,C,F, A,,C,F,A, | F,A,CF A,CFA | C,E,G,C E,G,CE | z8 | z8 | z4 z2 [C,G,]2 | %33
 E,/_G,/B,/E/ G,/B,/E/_G/ E/B,/G,/E,/ G,/B,/E/G/ | z8 | E,/F,/_G,/A,/ B,/_C/D/E/ z4 | z8 | z8 | %38
 z8 | z8 | z8 || z8 | z8 | z4 z2 z [F,,F,] | [_G,,_G,][A,,A,][B,,B,][_C,_C] [B,,B,]2 [B,,B,][C,C] | %45
 [D,D][E,E][F,F][_G,_G] [F,F][E,E][D,D][E,E] | [D,D][_C,_C][B,,B,][A,,A,] [_G,,_G,][F,,F,] z2 | %47
 [B,,B,]3 [D,D] [F,F]3 [B,B] | [Dd]3 [B,B] [F,F]3 [D,D] | z8 | z8 | z4 z2 [B,,B,]2 | %52
 z4 z2 [B,,B,]2 | [=A,,=A,]2 [_A,,_A,]2 [G,,G,]2 [F,,F,]2 | [=E,,=E,]2 z2 z4 | z8 | %56
 [G,C] z z [G,C] [G,C] z z [=E,G,] | [=E,G,] z z [C,E,] [C,E,] z z [F,,C,] || %58
 [F,C][F,C][F,,C,][F,,C,] [F,C][F,C][F,,C,][F,,C,] | %59
 [F,C][F,C][F,,C,][F,,C,] [F,C][F,C][F,,C,][F,,C,] | %60
 [F,C][F,C][F,,C,][F,,C,] [F,C][F,C][F,,C,][F,,C,] | %61
 [F,C][F,C][F,,C,][F,,C,] [F,C][F,C][F,,C,][F,,C,] | z [=B,E]A,[B,E] F,F, [A,D]2 | %63
 B,,A,F,A, [A,_CE]2 [A,CE]2 | D,G,G,[D,E,] [D,E,][B,D][B,D][E,G,] | %65
 [_CE][D,A,][D,A,][EA] [EA][A,C][A,C][A_c] | [A,D] z [A,D]2 [_G,C]2 [G,C]2 | %67
 [A,D] z [A,D]2 z2 A,B, | _C2 [D,D]2 [E,E]2 [_F,_F]2 | [_G,_G]2 [A,A]2 [=A,=A]2 [=B,=B]2 | z8 | %71
 z8 | z8 | z8 |[M:3/4] z6 | z6 |[M:4/4] z8 | z8 | z8 | z8 || %80
[K:Eb][M:9/8] [F,,A,,][F,A,][F,A,] [F,,A,,][F,A,][F,A,] [F,,A,,][F,B,][F,B,] | %81
 [F,,A,,][F,A,][F,A,] [F,,A,,][F,A,][F,A,] [F,,A,,][F,B,][F,B,] | %82
 [F,,A,,][F,A,][F,A,] [F,,A,,][F,A,][F,A,] [F,,A,,][F,B,][F,B,] | %83
 [A,,C,][A,C][A,C] [A,,C,][A,C][A,C] [A,,C,][A,C][A,C] | %84
 [B,,_D,][B,_D][B,D] [=B,,=D,][=B,=D][B,D] [B,,D,]3 | [_D,B,] z [_DB] [=D,=B,][=D=B][D,B,] [DB]3 | %86
 [=E,B,]3 [_G,D]3 [A,=E]3 | z9 | z9 | z9 | [=B,,=B,]3 [B,,B,]2 [_B,,_B,] z2 [G,,G,] | z9 | z9 | %93
 z9 | z9 | z9 | z9 | z9 | z9 | z9 | z9 | z9 | z9 | z9 | z9 | z9 | z9 | z9 | z9 | z9 | z9 | z9 | %112
 z9 | z9 | z9 | z9 | z9 | z9 | z9 | z9 | z9 | z9 |[K:F] [B,,F,]3 [B,,F,]3 [A,,F,]3 | %123
 [_G,,_D,]3 [G,,D,]3 [F,,C,]3 | [_G,,_D,]3 [G,,D,]3 [F,,C,]3 | [B,,F,]3 [B,,F,]3 A,,B,,D, | %126
 _E,F,G, E,A,B, CDG |[M:4/4] F8 | z8 | z8 | z8 | z8 | z8 |[M:9/8] z9 | z9 | z9 | z9 | z9 | z9 | %139
 z9 | z9 | z9 | z9 |[M:4/4] F2 _D2 F2 D2 | F2 _D2 F2 D2 | F2 _D2 F2 D2 | F2 _D2 F2 D2 | %147
 F2 _D2 F2 D2 | F2 _D2 F2 D2 | z8 | z8 |[M:3/4] z6 | z6 | z6 | z6 |[M:4/4] C,2 ^D,^F, F,=F,E,D, | %156
 D,2 z2 z4 |[M:3/4] z6 | z6 | z6 | z6 |[M:4/4] F,2 _A,_C CB,=A,_A, | G, z z2 z4 | z8 | z8 || %165
 G,G,G,G, G,G,G,G, | ^G, z z2 z4 | z2 A,A, A,A,A,A, | z8 | ^G,G,G,G, G,G,G,G, | %170
 ^G,G,G,[^G,,G,] [A,,G,]G,G,G, | [B,,^G,]G,G,G, G,G,G,G, | ^G,G,G,[C,G,] [_D,G,]G,G,G, | %173
 [_G,,^G,]G,G,G, ^F,F,F,F, | ^F,F,F,[^F,,F,] [G,,F,]F,F,F, | [^G,,^F,]F,F,F, F,F,F,F, | %176
 ^F,F,F,[B,,F,] [_C,F,]F,F,F, | [E,,^F,]F,=F,F, F,F,F,F, | F,F,F,D, z z z _D, | %179
 z ^F,F,F, F,F,F,F, | G,G,G,D, _D z z _E, |[M:3/4] E z4 z | z6 | z6 | z6 |[M:4/4] z8 | z8 | z8 | %188
 z8 | z8 | z8 | z8 | z8 | z8 | z8 | z8 | z8 | z8 | z8 | z8 |] %200

